X: 31704
T: Passport Panic
R: reel
M: 4/4
K: Eminor
E2 DE GE E/E/E|DEGA EBAG|E2 DE GE E/E/E|BdAF GE E/E/E|
DE DE GE E/E/E|DEGA EBAG|BdAF GE E/E/E|DEGD E3 E:|
AE^cE cdEd|dEGB A3 G|ABdA B2 E/G/B|AGED GE E/E/E|
AEBE ^cEec|^cBGB A3 G|ABdA B2 E/G/B|AGED GE E/E/E:|
AB dE de Ee|eE dE cd Ed|dE BE ^AB E^A|BEGB AGEG|
AB dE de Ee|eE dE cd Ed|dEGB AGED|DE ED E4:|

